X:9
T:Anvil Chorus
T:(from "IL TROVATORE")
%%LineSep 30pt
%%topspace 50pt
%%titlespace 50pt
C:/Giuseppe Verde
S:Source "The One Hundred and One Best Songs" - The Cable Company - 1919 - Chicago, Illinois
M:4/4
L:1/4
Q:1/4=110
K:F
"@@19"z4 | !p!z2 F C/ A,/ | G E/ C/ A F/ C/ | B G/ E/ c A/ F/ | d !tenuto!B/ .G/
w:God of the na-tions, in glo-ry en-thron-ed, Up-on our loved coun-try Thy
E F | G z F C/ A,/ | G E/ C/ A F/ C/ | B G/ E/ c A/ F/ |
w:bless-ings pour; Guide us and guard us from strife in the fu-ture, Let peace dwell a\-
d B/ G/ E F | G z z2 | "@@5"z4 | !f!d2 d > d | (d > c) B > G | F > A c > _e | d2 B z |
w:mong us for-ev-er-more. Proud-ly our ban\-* ner now gleams with gold-en lus-ter!
d2 d > d | (d > c) (B > G) | F > A c > _e | (d B) d z | B z c z | A B G A |
w:Brigh-ter each star* shines* in the glo-rious clus\-* ter! Hail! Hail! Free-dom ev-er\-
D2 z3/4 [^F/4D] [G3/4E] [A/4^F] | [BG] [BG] z3/4 [A/4^F] [B3/4G] [c/4A] | [dB] [dB] z3/4 [c/4A] [d3/4B] [_e/4c] | [f3d3] [_ec] | [d3B3] z |]
w:more, And truth tr-um-phant, and truth tr-um-phant through-out our glo-rious land.

%%newpage

